brandFactory_export/2.Regular/Documento_Archivo MP4_2 Regular.svg

<?xml version="1.0" encoding="UTF-8"?>
<svg width="24px" height="24px" viewBox="0 0 24 24" version="1.1" xmlns="http://www.w3.org/2000/svg" xmlns:xlink="http://www.w3.org/1999/xlink">
    <title>2.Regular/Documento_Archivo MP4_2 Regular</title>
    <g id="Symbols" stroke="none" stroke-width="1" fill="none" fill-rule="evenodd">
        <g id="2.Regular/Documento_Archivo-MP4_2-Regular" fill="#5CB615" fill-rule="nonzero">
            <path d="M16.2117647,0.0268907563 C16.4907563,0.0268907563 16.7529412,0.131092437 16.9478992,0.32605042 L23.3042017,6.47731092 C23.4386555,6.60840336 23.5159664,6.77310924 23.5663866,6.94453782 C23.6033613,7.03193277 23.6235294,7.12941176 23.6235294,7.2302521 L23.6235294,21.9966387 C23.6235294,22.897479 22.8504202,23.6571429 21.9327731,23.6571429 L7.31428571,23.6571429 C6.41344538,23.6571429 5.62689076,22.8806723 5.62689076,21.9966387 L5.66722689,18.6689076 L2.90756302,18.6689076 C1.30756302,18.6689076 0.00336134409,17.3613445 0.00336134409,15.7579832 L0.00336134409,10.8436975 C0.00336134409,9.24033613 1.30756302,7.93277311 2.90756302,7.93277311 L5.62689076,7.93277311 L5.62689076,1.68739496 C5.62689076,0.820168067 6.4302521,0.0268907563 7.31428571,0.0268907563 L16.2117647,0.0268907563 Z M15.1529412,1.49243697 L7.31092437,1.49243697 C7.22352941,1.49243697 7.08571429,1.62352941 7.0789916,1.69411765 L7.0789916,7.93613445 L14.7159664,7.93613445 C16.3193277,7.93613445 17.6201681,9.24369748 17.6201681,10.8470588 L17.6201681,15.7613445 C17.6201681,17.3647059 16.3159664,18.6722689 14.7159664,18.6722689 L7.11932773,18.6722689 L7.0789916,22.0067227 C7.0789916,22.0672269 7.2,22.1983193 7.31092437,22.1983193 L21.9327731,22.1983193 C22.0504202,22.1983193 22.1647059,22.0840336 22.1647059,21.9966387 L22.1647059,8.27563025 L19.3882353,8.27563025 C18.1714286,8.27563025 17.1193277,7.8789916 16.3462185,7.13277311 C15.5663866,6.37647059 15.1529412,5.34789916 15.1529412,4.15462185 L15.1529412,1.49243697 Z M14.7193277,9.39495798 L2.90420168,9.39495798 C2.10420168,9.39495798 1.45546218,10.0470588 1.45546218,10.8470588 L1.45546218,15.7613445 C1.45546218,16.5613445 2.10420168,17.2134454 2.90420168,17.2134454 L14.7193277,17.2134454 C15.5193277,17.2134454 16.1680672,16.5613445 16.1680672,15.7613445 L16.1680672,10.8470588 C16.1680672,10.0470588 15.5193277,9.39495798 14.7193277,9.39495798 Z M3.41176471,11.1058824 L4.80672269,13.5731092 L6.2487395,11.1058824 L7.02521008,11.1058824 L7.02521008,15.5226891 L6.10084034,15.5226891 L6.10084034,12.9781513 L5.18319328,14.5142857 L4.40672269,14.5142857 L3.46218487,12.9512605 L3.46218487,15.5226891 L2.61848739,15.5226891 L2.61848739,11.1058824 L3.41176471,11.1058824 Z M9.50252101,11.1058824 C10.194958,11.1058824 10.6319328,11.2033613 10.9176471,11.4689076 C11.1563025,11.687395 11.2739496,12.0302521 11.2739496,12.5008403 C11.2739496,12.9714286 11.1630252,13.3277311 10.9445378,13.5731092 C10.6857143,13.8621849 10.2857143,14 9.70420168,14 L8.99495798,14 L8.99495798,15.5226891 L7.98655462,15.5226891 L7.98655462,11.1058824 L9.50252101,11.1058824 Z M13.7042017,11.102521 L12.7092437,13.8151261 L13.7310924,13.8151261 L13.7310924,12.7630252 L14.6554622,12.7630252 L14.6554622,13.8151261 L15.1731092,13.8151261 L15.1731092,14.507563 L14.6554622,14.507563 L14.6554622,15.5226891 L13.7310924,15.5226891 L13.7310924,14.507563 L11.7882353,14.507563 C11.7747899,14.4638655 11.7613445,14.3663866 11.7613445,14.2823529 C11.7613445,14.1008403 11.794958,13.8957983 11.8957983,13.610084 L12.8134454,11.102521 L13.7042017,11.102521 Z M9.46218487,11.8352941 L8.99159664,11.8352941 L8.99159664,13.2436975 L9.48571429,13.2436975 C9.80840336,13.2436975 9.94285714,13.2 10.0739496,13.0756303 C10.1915966,12.9579832 10.2487395,12.7731092 10.2487395,12.5142857 C10.2487395,12.2756303 10.1983193,12.1008403 10.0806723,11.989916 C9.95966387,11.8789916 9.77142857,11.8352941 9.46218487,11.8352941 Z M16.615126,2.03697479 L16.615126,4.15462185 C16.615126,4.94453782 16.8739496,5.61008403 17.3613445,6.08403361 C17.8588235,6.56470588 18.5579832,6.81680672 19.3915966,6.81680672 L21.5529412,6.81680672 L16.615126,2.03697479 Z" id="Documento_Archivo-MP4_2-Regular"></path>
        </g>
    </g>
</svg>

<svg width="24" height="24" viewBox="0 0 24 24" xmlns="http://www.w3.org/2000/svg"><path d="M16.212.027c.279 0 .54.104.736.3l6.356 6.15c.135.131.212.296.262.468a.735.735 0 01.058.285v14.767c0 .9-.774 1.66-1.691 1.66H7.314c-.9 0-1.687-.776-1.687-1.66l.04-3.328h-2.76a2.913 2.913 0 01-2.904-2.911v-4.914a2.913 2.913 0 012.905-2.911h2.719V1.687c0-.867.803-1.66 1.687-1.66h8.898zm-1.06 1.465H7.312c-.087 0-.225.132-.232.202v6.242h7.637a2.91 2.91 0 012.904 2.911v4.914a2.913 2.913 0 01-2.904 2.911H7.119l-.04 3.335c0 .06.121.191.232.191h14.622c.117 0 .232-.114.232-.201V8.276h-2.777c-1.217 0-2.269-.397-3.042-1.143-.78-.757-1.193-1.785-1.193-2.978V1.492zm-.433 7.903H2.904c-.8 0-1.449.652-1.449 1.452v4.914c0 .8.65 1.452 1.45 1.452h11.814c.8 0 1.45-.652 1.45-1.452v-4.914c0-.8-.65-1.452-1.45-1.452zm-11.307 1.71l1.395 2.468 1.442-2.467h.776v4.417h-.924v-2.545l-.918 1.536h-.776l-.945-1.563v2.572h-.844v-4.417h.794zm6.09 0c.693 0 1.13.098 1.416.364.238.218.356.561.356 1.032 0 .47-.111.827-.33 1.072-.258.29-.658.427-1.24.427h-.709v1.523H7.987v-4.417h1.516zm4.202-.002l-.995 2.712h1.022v-1.052h.924v1.052h.518v.693h-.518v1.015h-.924v-1.015h-1.943a.934.934 0 01-.027-.226c0-.181.034-.386.135-.672l.917-2.507h.891zm-4.242.732h-.47v1.409h.494c.322 0 .457-.044.588-.168.118-.118.175-.303.175-.562 0-.238-.05-.413-.168-.524-.121-.111-.31-.155-.619-.155zm7.153-9.798v2.118c0 .79.259 1.455.746 1.929.498.48 1.197.733 2.03.733h2.162l-4.938-4.78z" fill="#5CB615" fill-rule="nonzero"/></svg>
